pk/romper.svg

<svg viewBox="0 0 48 48" fill="none" xmlns="http://www.w3.org/2000/svg" height="1em" width="1em">
  <path d="M6.57241 19.5747L4.40745 12.3582C4.16338 11.5446 4.4545 10.6619 5.17189 10.2071C8.05736 8.37793 14.6413 5 24 5C33.3427 5 39.7999 8.36639 42.7589 10.1977C43.5067 10.6605 43.8274 11.5754 43.5747 12.4177L41.4276 19.5747C41.1738 20.4207 40.3952 21 39.5119 21H36C34.8954 21 34 21.8911 34 22.9957V33.0019C34 34.1065 33.0949 35.0132 32.0273 35.2966C30.7283 35.6415 29.0752 36.3873 28 38C26 41 26 44 26 44H22C22 44 22 41 20 38C18.9248 36.3873 17.2717 35.6415 15.9727 35.2966C14.9051 35.0132 14 34.1065 14 33.0019V22.9957C14 21.8911 13.1046 21 12 21H8.48806C7.60484 21 6.8262 20.4207 6.57241 19.5747Z" fill="#2F88FF" stroke="black" stroke-width="4" stroke-linecap="round" stroke-linejoin="round"/>
  <path d="M29.811 5.5C29.9344 5.97943 30 6.48205 30 7C30 10.3137 27.3137 13 24 13C20.6863 13 18 10.3137 18 7C18 6.48205 18.0656 5.97943 18.189 5.5" stroke="white" stroke-width="4" stroke-linecap="round" stroke-linejoin="round"/>
  <path d="M13.5 6.49375C16.4326 5.63028 19.9575 5 24 5C28.0425 5 31.5449 5.63028 34.4573 6.49375" stroke="black" stroke-width="4" stroke-linecap="round" stroke-linejoin="round"/>
</svg>

<svg viewBox="0 0 48 48" fill="none" xmlns="http://www.w3.org/2000/svg" height="1em" width="1em">
  <path d="m6.572 19.575-2.165-7.217c-.244-.813.048-1.696.765-2.15C8.057 8.377 14.642 5 24 5c9.343 0 15.8 3.366 18.759 5.198.748.463 1.068 1.377.816 2.22l-2.147 7.157A2 2 0 0 1 39.512 21H36c-1.105 0-2 .891-2 1.996v10.006c0 1.104-.905 2.011-1.973 2.295-1.299.345-2.952 1.09-4.027 2.703-2 3-2 6-2 6h-4s0-3-2-6c-1.075-1.613-2.728-2.358-4.027-2.703-1.068-.284-1.973-1.19-1.973-2.295V22.996A1.996 1.996 0 0 0 12 21H8.488a2 2 0 0 1-1.916-1.425Z" fill="#2F88FF" stroke="#000" stroke-width="4" stroke-linecap="round" stroke-linejoin="round"/>
  <path d="M29.811 5.5a6 6 0 1 1-11.622 0" stroke="#fff" stroke-width="4" stroke-linecap="round" stroke-linejoin="round"/>
  <path d="M13.5 6.494A37.093 37.093 0 0 1 24 5c4.043 0 7.545.63 10.457 1.494" stroke="#000" stroke-width="4" stroke-linecap="round" stroke-linejoin="round"/>
</svg>
